X: 121
T: Dui lianhua
L: 1/8
M: 3/4
K: F
A> c f d [I:setbarnb 1]| 
c4 | 
d> d D F | 
G4 | 
f3d | 
c4 | 
d> d D F | 
G4 | 
D> F D F | 
G4 | 
c2f2 | 
d> f d c | 
B3D | 
C4 | 
c> d c A | 
G2D2 | 
c2D2 | 
F2D2 | 
c> d c A | 
G2C2 | 
c> d c A | 
GE2C | 
f> d c A | 
G G/ F/ G A | 
CC2D | 
E G E D | 
C2c2 | 
A GD2 | 
C4 | 
d f c d | 
d g f3/ d/ | 
c Ac4 | 
[M:2/4]GE3 | 
A d c A | 
[M:3/4]c AG4 | 
[M:2/4]A cE2 | 
d g f d | 
[M:3/4]c Ac4 | 
[M:2/4]F D c A | 
cE3 | 
[M:3/4]c AG4 | 
[M:2/4]F3G | 
A4 | 
A2c2 | 
d c A G | 
c4 | 
E4 | 
A> f d c | 
A4 | 
cD3 | 
G G/ A/ E D | 
C4 |]

@@@ Tune index: 8995
